X: 23735
T: Little Beggarman, The
R: reel
M: 4/4
K: Aminor
A^GAB cBcd|{cd}e2 dc d2 cd|{cd}e2 G2 cAGE|G5 cB|
A^GAB cBcd|e2 dc d2 e2|c2 BA AGEG|A5||
g3 a g2 fe|fedc d2 cd|{cd}e2 G2 {AB}c2 GE|G5 cB|
A^GAB cBcd|e2 dc d2 e2|c2 BA AGEG|A5||

